X: 1
T: Humours Of Rahey, The
M: 6/8
L: 1/8
R: jig
K: Dmix
cAA A2G | EFG ABc | BAG edc | (3Bcd B GAB | 
cAA A2G | EFG AGE | D(3DDD AGE | D(3DDD DdB :|
|: Ad^c d2e | fef ge^c | Ad^c ded | cAG EFG |
Ad^c d2e | [1 fef ge^c | ded cAB | c2G EFG :|
[2 fef gab | age ded | cAG EFG ||
